icons/floodio.svg

<?xml version="1.0" encoding="UTF-8" standalone="no"?>
<svg width="256px" height="256px" viewBox="0 0 256 256" version="1.1" xmlns="http://www.w3.org/2000/svg" xmlns:xlink="http://www.w3.org/1999/xlink" preserveAspectRatio="xMidYMid">
    <g>
        <path d="M128.0001,231.899 C70.6181,231.899 24.1011,185.382 24.1011,128 C24.1011,70.618 70.6181,24.101 128.0001,24.101 C185.3821,24.101 231.8991,70.618 231.8991,128 C231.8991,185.382 185.3821,231.899 128.0001,231.899 M128.0001,0 C57.3081,0 0.0001,57.308 0.0001,128 C0.0001,198.692 57.3081,256 128.0001,256 C198.6921,256 256.0001,198.692 256.0001,128 C256.0001,57.308 198.6921,0 128.0001,0 M140.9266,117.0906 C144.0646,109.2136 146.5946,101.0386 150.3846,93.4936 C154.3736,85.5506 159.5466,80.3806 169.2946,80.6796 C178.6276,80.9656 185.8856,86.9416 189.1346,94.7876 C194.2706,107.1906 198.0216,119.4856 202.2136,132.2616 C204.8896,140.4176 207.5036,149.3086 215.4076,153.4856 C222.7146,158.3466 219.8326,162.9366 217.9376,166.2086 C214.2636,170.7646 208.2516,169.2176 207.7246,169.1486 C201.5526,168.3396 192.2156,158.4086 189.4286,151.3666 C183.7226,136.9506 182.4776,128.6546 177.0836,114.1126 C176.5306,112.6206 175.0396,107.0366 174.2166,105.4456 C172.5366,102.1946 167.9196,102.0096 166.0196,105.1366 C165.4676,106.0446 165.0126,106.9076 164.6616,107.8116 C160.6346,118.1856 152.0726,143.0386 151.2196,144.9006 C140.1876,168.9836 124.0806,171.9166 105.2216,151.7336 C102.0206,148.3086 99.0756,143.6806 95.9636,140.1976 C90.3766,133.9456 85.5316,133.4126 80.5326,140.0506 C76.8376,144.9566 72.9586,149.6516 69.4566,154.7116 C64.3736,162.0546 57.6816,168.1986 48.6426,169.1486 C43.5226,169.6866 38.2966,167.4926 36.8866,161.9476 C35.5636,156.7476 39.1156,152.3676 43.7266,151.1536 C50.6996,149.3176 51.7136,148.0956 55.1826,142.5486 C55.6486,141.8036 59.1326,136.2456 59.5916,135.4946 C76.3666,108.0436 96.9706,108.3376 115.7266,134.2066 C117.0626,136.0506 119.2616,139.1026 121.2486,141.8656 C123.2776,144.6856 127.5656,144.3786 129.1696,141.2976 C135.4946,133.7316 138.5856,122.9676 140.9266,117.0906" fill="#298EEA"></path>
    </g>
</svg>

<svg xmlns="http://www.w3.org/2000/svg" viewBox="0 0 256 256">
  <path fill="#298eea" d="M128 231.899c-57.382 0-103.899-46.517-103.899-103.899S70.618 24.101 128 24.101 231.899 70.618 231.899 128 185.382 231.899 128 231.899M128 0C57.308 0 0 57.308 0 128c0 70.692 57.308 128 128 128 70.692 0 128-57.308 128-128C256 57.308 198.692 0 128 0m12.927 117.09c3.138-7.876 5.668-16.051 9.458-23.596 3.989-7.943 9.162-13.113 18.91-12.814 9.333.286 16.59 6.262 19.84 14.108 5.136 12.403 8.887 24.698 13.079 37.474 2.676 8.156 5.29 17.047 13.194 21.224 7.307 4.86 4.425 9.45 2.53 12.723-3.674 4.556-9.686 3.009-10.213 2.94-6.172-.81-15.51-10.74-18.296-17.782-5.706-14.416-6.951-22.712-12.345-37.254-.553-1.492-2.044-7.076-2.867-8.667-1.68-3.251-6.297-3.436-8.197-.31-.552.909-1.007 1.772-1.358 2.676-4.027 10.374-12.59 35.227-13.442 37.089-11.032 24.083-27.14 27.016-45.998 6.833-3.201-3.425-6.146-8.053-9.258-11.536-5.587-6.252-10.432-6.785-15.431-.147-3.695 4.906-7.574 9.6-11.076 14.66-5.083 7.344-11.775 13.488-20.814 14.438-5.12.538-10.346-1.656-11.756-7.201-1.323-5.2 2.229-9.58 6.84-10.794 6.973-1.836 7.987-3.058 11.456-8.605.466-.745 3.95-6.303 4.409-7.054 16.775-27.451 37.379-27.157 56.135-1.288 1.336 1.844 3.535 4.896 5.522 7.659 2.029 2.82 6.317 2.513 7.92-.568 6.326-7.566 9.417-18.33 11.758-24.207"/>
</svg>
